fe/src/assets/icons/info.svg

<svg width="30" height="30" viewBox="0 0 30 30" fill="none" xmlns="http://www.w3.org/2000/svg">
<circle cx="15" cy="15" r="15" fill="#1B8D49"/>
<path d="M13.7131 23V9.90909H16.2614V23H13.7131ZM15 7.8892C14.5568 7.8892 14.1761 7.74148 13.858 7.44602C13.5455 7.14489 13.3892 6.78693 13.3892 6.37216C13.3892 5.9517 13.5455 5.59375 13.858 5.29829C14.1761 4.99716 14.5568 4.84659 15 4.84659C15.4432 4.84659 15.821 4.99716 16.1335 5.29829C16.4517 5.59375 16.6108 5.9517 16.6108 6.37216C16.6108 6.78693 16.4517 7.14489 16.1335 7.44602C15.821 7.74148 15.4432 7.8892 15 7.8892Z" fill="white"/>
</svg>

<svg width="30" height="30" fill="none" xmlns="http://www.w3.org/2000/svg"><circle cx="15" cy="15" r="15" fill="#1B8D49"/><path d="M13.713 23V9.91h2.548V23h-2.548zM15 7.89a1.62 1.62 0 0 1-1.142-.444 1.441 1.441 0 0 1-.469-1.074c0-.42.157-.778.469-1.074A1.603 1.603 0 0 1 15 4.847c.443 0 .821.15 1.134.451.318.296.477.654.477 1.074 0 .415-.16.773-.477 1.074A1.59 1.59 0 0 1 15 7.889z" fill="#fff"/></svg>
